X:5
T:Fiddler's Pet
C:Jim Magill
M:6/8
R:jig
L:1/8
Z:abc by Bruce Osborne - bosborne@kos.net
K:G
d|gdB GBd|gdB G2B|c2A F2A|GBe d3|
gdB GBd|gdB G2B|c2A F2A|DEF G2:|
|:D|G2B AFD|GBe d3|gdB GAB|c2A F2D|
G2B AFD|GBe d3|gdB GAB|cAF G2:|
